fs/drag_24_filled.svg

<svg viewBox="0 0 24 24" fill="none" xmlns="http://www.w3.org/2000/svg" height="1em" width="1em">
  <path d="M11.9998 16.0005C12.5127 16.0005 12.9353 16.3865 12.9931 16.8839L12.9998 17.0005V18.5845L13.2927 18.2934C13.6532 17.9329 14.2204 17.9052 14.6127 18.2102L14.7069 18.2934C15.0674 18.6539 15.0951 19.2211 14.7901 19.6134L14.7069 19.7076L12.7069 21.7076L12.663 21.749L12.5951 21.8042L12.4839 21.8758L12.3712 21.9293L12.2658 21.9646L12.1483 21.9895L12.0591 21.9987H11.9404L11.8818 21.9936L11.7663 21.9731L11.6582 21.9406L11.5766 21.9068L11.4791 21.8545L11.3831 21.7877C11.3514 21.7628 11.3212 21.7361 11.2927 21.7076L9.29271 19.7076C8.90219 19.3171 8.90219 18.6839 9.29271 18.2934C9.6532 17.9329 10.2204 17.9052 10.6127 18.2102L10.7069 18.2934L10.9998 18.5855V17.0005C10.9998 16.4876 11.3859 16.065 11.8832 16.0072L11.9998 16.0005ZM18.2927 9.29338C18.6532 8.93289 19.2204 8.90516 19.6127 9.21019L19.7069 9.29338L21.7069 11.2934L21.7483 11.3373L21.8035 11.4052L21.8751 11.5164L21.9286 11.6291L21.964 11.7345L21.9888 11.852L21.9981 11.9412V12.0598L21.993 12.1179L21.9724 12.234L21.9399 12.3422L21.9061 12.4237L21.8538 12.5212L21.7801 12.6259L21.7069 12.7076L19.7069 14.7076C19.3164 15.0981 18.6832 15.0981 18.2927 14.7076C17.9322 14.3471 17.9045 13.7799 18.2095 13.3876L18.2927 13.2934L18.5838 13.0005H16.9998C16.487 13.0005 16.0643 12.6144 16.0065 12.1171L15.9998 12.0005C15.9998 11.4876 16.3859 11.065 16.8832 11.0072L16.9998 11.0005H18.5848L18.2927 10.7076C17.9322 10.3471 17.9045 9.77988 18.2095 9.38759L18.2927 9.29338ZM4.29271 9.29338C4.68324 8.90285 5.3164 8.90285 5.70693 9.29338C6.06741 9.65386 6.09514 10.2211 5.79012 10.6134L5.70693 10.7076L5.41382 11.0005H6.99982C7.51266 11.0005 7.93533 11.3865 7.99309 11.8839L7.99982 12.0005C7.99982 12.5133 7.61378 12.936 7.11644 12.9938L6.99982 13.0005H5.41482L5.70693 13.2934C6.06741 13.6539 6.09514 14.2211 5.79012 14.6134L5.70693 14.7076C5.34644 15.0681 4.77921 15.0958 4.38692 14.7908L4.29271 14.7076L2.29271 12.7076L2.19615 12.5958L2.12449 12.4845L2.07105 12.3718L2.03566 12.2665L2.01084 12.149L2.00344 12.0857L2 11.9813L2.00379 11.9112L2.02006 11.7998L2.04956 11.6883L2.09349 11.5773L2.14582 11.4798L2.21261 11.3837C2.23749 11.352 2.26425 11.3218 2.29271 11.2934L4.29271 9.29338ZM11.9998 9.25049C13.5186 9.25049 14.7498 10.4817 14.7498 12.0005C14.7498 13.5193 13.5186 14.7505 11.9998 14.7505C10.481 14.7505 9.24982 13.5193 9.24982 12.0005C9.24982 10.4817 10.481 9.25049 11.9998 9.25049ZM11.8514 2.0115L11.9246 2.00327L12.0541 2.00195L12.1745 2.01577L12.312 2.05022L12.423 2.09416L12.5205 2.14648L12.6253 2.22017L12.7069 2.29338L14.7069 4.29338C15.0975 4.6839 15.0975 5.31707 14.7069 5.70759C14.3464 6.06808 13.7792 6.09581 13.3869 5.79078L13.2927 5.70759L12.9998 5.41549V7.00049C12.9998 7.51332 12.6138 7.93599 12.1164 7.99376L11.9998 8.00049C11.487 8.00049 11.0643 7.61445 11.0065 7.11711L10.9998 7.00049V5.41449L10.7069 5.70759C10.3464 6.06808 9.77921 6.09581 9.38692 5.79078L9.29271 5.70759C8.93223 5.34711 8.9045 4.77988 9.20952 4.38759L9.29271 4.29338L11.2927 2.29338L11.4045 2.19682L11.5158 2.12516L11.6285 2.07171L11.7338 2.03633L11.8514 2.0115Z" fill="#212121"/>
</svg>

<svg viewBox="0 0 24 24" fill="none" xmlns="http://www.w3.org/2000/svg" height="1em" width="1em">
  <path d="M12 16a1 1 0 0 1 .993.884L13 17v1.584l.293-.29a1 1 0 0 1 1.32-.084l.094.083a1 1 0 0 1 .083 1.32l-.083.095-2 2-.044.041-.068.055-.111.072-.113.053-.105.036-.118.024-.089.01h-.119l-.058-.005-.116-.02-.108-.033-.081-.034-.098-.052-.096-.067a1.01 1.01 0 0 1-.09-.08l-2-2a1 1 0 0 1 1.32-1.498l.094.083.293.293V17a1 1 0 0 1 .883-.994L12 16Zm6.293-6.707a1 1 0 0 1 1.32-.083l.094.083 2 2 .041.044.055.068.072.111.054.113.035.106.025.117.01.09v.118l-.006.058-.02.116-.033.108-.034.082-.052.097-.074.105-.073.082-2 2a1 1 0 0 1-1.498-1.32l.084-.095.29-.292H17a1 1 0 0 1-.994-.884L16 12a1 1 0 0 1 .883-.993l.117-.006h1.585l-.292-.293a1 1 0 0 1-.084-1.32l.084-.095Zm-14 0a1 1 0 0 1 1.497 1.32l-.083.095-.293.293H7a1 1 0 0 1 .993.883L8 12a1 1 0 0 1-.884.993L7 13H5.415l.292.292a1 1 0 0 1 .083 1.32l-.083.095a1 1 0 0 1-1.32.083l-.094-.083-2-2-.097-.112-.072-.111-.053-.113-.035-.105-.025-.118-.008-.063L2 11.98l.004-.07.016-.111.03-.112.043-.11.053-.098.067-.096a.999.999 0 0 1 .08-.09l2-2ZM12 9.25a2.75 2.75 0 1 1 0 5.5 2.75 2.75 0 0 1 0-5.5Zm-.149-7.239.074-.008.13-.001.12.014.137.034.111.044.098.052.104.074.082.073 2 2a1 1 0 0 1-1.32 1.498l-.094-.083L13 5.415V7a1 1 0 0 1-.884.994L12 8a1 1 0 0 1-.993-.883L11 7V5.414l-.293.294a1 1 0 0 1-1.32.083l-.094-.083a1 1 0 0 1-.083-1.32l.083-.095 2-2 .112-.096.11-.072.114-.053.105-.036.117-.025Z" fill="#212121"/>
</svg>
